;Generated with Cura_SteamEngine 15.01
; Default start code
G28 ; Home extruder
G1 Z15 F100
M107 ; Turn off fan
G90 ; Absolute positioning
M82 ; Extruder in absolute mode
M190 S50
; Activate all used extruder
M104 T0 S210
G92 E0 ; Reset extruder position
; Wait for all used extruders to reach temperature
M109 T0 S210
;Layer count: 341
;LAYER:0
M107
G0 F9000 X71.135 Y102.415 Z0.300
;TYPE:SKIRT
G1 F1800 X76.546 Y104.575 E0.29067
G1 X77.300 Y104.846 E0.33064
G1 X77.924 Y105.070 E0.36372
G1 X77.924 Y105.071 E0.36377
G1 X79.220 Y105.531 E0.43238
G1 X79.944 Y105.762 E0.47029
G1 X80.737 Y106.014 E0.51181
G1 X81.792 Y106.350 E0.56705
G1 X83.555 Y106.861 E0.65862
G1 X84.308 Y107.079 E0.69773
G1 X85.276 Y107.337 E0.74771
G1 X86.330 Y107.621 E0.80217
G1 X87.578 Y107.937 E0.86640
G1 X89.032 Y108.299 E0.94115
G1 X90.394 Y108.611 E1.01086
G1 X91.777 Y108.905 E1.08140
G1 X93.253 Y109.177 E1.15628
G1 X94.636 Y109.402 E1.22619
G1 X94.715 Y109.413 E1.23017
G1 X95.553 Y109.533 E1.27240
G1 X96.339 Y109.631 E1.31192
G1 X96.609 Y109.662 E1.32548
G1 X97.165 Y109.724 E1.35339
G1 X98.055 Y109.808 E1.39799
G1 X98.635 Y109.856 E1.42702
G1 X99.360 Y109.915 E1.46331
G1 X99.813 Y109.946 E1.48597
G1 X99.946 Y109.944 E1.49260
G1 X100.037 Y109.947 E1.49715
G1 X101.353 Y109.942 E1.56280
G1 X102.288 Y109.955 E1.60945
G1 X102.670 Y109.954 E1.62851
G1 X103.835 Y109.969 E1.68664
G1 X104.329 Y109.979 E1.71129
G1 X104.922 Y109.987 E1.74088
G1 X106.018 Y110.016 E1.79558
G1 X106.792 Y110.032 E1.83420
G1 X107.405 Y110.083 E1.86489
G1 X108.226 Y110.103 E1.90586
G1 X108.572 Y110.114 E1.92313
G1 X109.719 Y110.224 E1.98062
G1 X110.171 Y110.242 E2.00318
G1 X111.452 Y110.369 E2.06741
G1 X111.964 Y110.418 E2.09307
G1 X112.554 Y110.476 E2.12264
G1 X113.845 Y110.634 E2.18753
G1 X114.400 Y110.703 E2.21544
G1 X114.941 Y110.778 E2.24268
G1 X115.606 Y110.875 E2.27621
G1 X116.131 Y110.954 E2.30270
G1 X116.658 Y111.039 E2.32933
G1 X117.212 Y111.120 E2.35726
G1 X117.799 Y111.220 E2.38697
G1 X118.518 Y111.334 E2.42329
G1 X119.623 Y111.521 E2.47920
G1 X120.565 Y111.678 E2.52685
G1 X121.126 Y111.772 E2.55523
G1 X121.914 Y111.903 E2.59508
G1 X122.542 Y111.999 E2.62678
G1 X123.084 Y112.082 E2.65413
G1 X123.739 Y112.180 E2.68717
G1 X123.739 Y112.179 E2.68722
G1 X124.234 Y112.250 E2.71217
G1 X124.712 Y112.315 E2.73624
G1 X125.266 Y112.387 E2.76411
G1 X126.040 Y112.488 E2.80305
G1 X126.525 Y112.545 E2.82742
G1 X127.110 Y112.613 E2.85680
G1 X127.638 Y112.671 E2.88330
G1 X128.462 Y112.762 E2.92466
G1 X129.172 Y112.833 E2.96026
G1 X130.018 Y112.915 E3.00266
G1 X131.122 Y113.023 E3.05800
G1 X131.921 Y113.092 E3.09801
G1 X132.411 Y113.137 E3.12256
G1 X132.411 Y113.136 E3.12261
G1 X132.992 Y113.186 E3.15171
G1 X133.518 Y113.231 E3.17804
G1 X134.250 Y113.288 E3.21467
G1 X134.868 Y113.336 E3.24560
G1 X135.623 Y113.393 E3.28337
G1 X136.241 Y113.438 E3.31429
G1 X136.241 Y113.439 E3.31434
G1 X136.738 Y113.473 E3.33919
G1 X137.360 Y113.516 E3.37030
G1 X138.012 Y113.559 E3.40290
G1 X138.555 Y113.595 E3.43005
G1 X139.205 Y113.631 E3.46252
G1 X139.862 Y113.671 E3.49536
G1 X140.365 Y113.698 E3.52049
G1 X141.057 Y113.733 E3.55506
G1 X142.531 Y114.005 E3.62984
G1 X143.083 Y114.105 E3.65783
G1 X143.762 Y114.226 E3.69224
G1 X144.974 Y114.449 E3.75372
G1 X145.521 Y114.554 E3.78151
G1 X146.129 Y114.676 E3.81245
G1 X148.864 Y115.236 E3.95173
G1 X148.864 Y125.634 E4.47048
G1 X144.561 Y124.923 E4.68807
G1 X143.957 Y124.814 E4.71869
G1 X143.082 Y124.660 E4.76302
G1 X142.491 Y124.546 E4.79305
G1 X141.924 Y124.442 E4.82181
G1 X141.305 Y124.321 E4.85327
G1 X140.071 Y124.070 E4.91610
G1 X139.508 Y123.952 E4.94480
G1 X138.634 Y123.765 E4.98939
G1 X137.784 Y123.578 E5.03281
G1 X137.255 Y123.459 E5.05986
G1 X136.872 Y123.370 E5.07948
G1 X136.657 Y123.366 E5.09021
G1 X136.071 Y123.360 E5.11944
G1 X135.438 Y123.347 E5.15103
G1 X134.928 Y123.336 E5.17648
G1 X134.375 Y123.323 E5.20408
G1 X133.875 Y123.312 E5.22903
G1 X133.140 Y123.297 E5.26570
G1 X132.624 Y123.283 E5.29146
G1 X132.094 Y123.270 E5.31791
G1 X131.239 Y123.245 E5.36058
G1 X129.961 Y123.201 E5.42438
G1 X129.188 Y123.174 E5.46297
G1 X128.406 Y123.142 E5.50201
G1 X128.406 Y123.143 E5.50206
G1 X127.767 Y123.119 E5.53397
G1 X127.189 Y123.090 E5.56284
G1 X126.262 Y123.045 E5.60914
G1 X125.605 Y123.001 E5.64199
G1 X124.838 Y122.957 E5.68032
G1 X124.134 Y122.907 E5.71553
G1 X123.504 Y122.857 E5.74706
G1 X122.839 Y122.794 E5.78039
G1 X122.122 Y122.731 E5.81630
G1 X121.196 Y122.633 E5.86275
G1 X120.569 Y122.555 E5.89428
G1 X119.933 Y122.483 E5.92621
G1 X119.180 Y122.384 E5.96410
G1 X118.553 Y122.297 E5.99568
G1 X117.727 Y122.185 E6.03727
G1 X117.116 Y122.102 E6.06803
G1 X116.606 Y122.030 E6.09373
G1 X116.535 Y122.020 E6.09730
G1 X116.488 Y122.017 E6.09965
G1 X116.266 Y121.980 E6.11088
G1 X115.797 Y121.917 E6.13449
G1 X115.253 Y121.840 E6.16190
G1 X114.430 Y121.728 E6.20334
G1 X113.926 Y121.665 E6.22868
G1 X113.393 Y121.597 E6.25549
G1 X112.725 Y121.511 E6.28909
G1 X112.208 Y121.452 E6.31505
G1 X111.699 Y121.395 E6.34060
G1 X110.972 Y121.318 E6.37707
G1 X110.972 Y121.319 E6.37712
G1 X110.452 Y121.265 E6.40321
G1 X109.877 Y121.213 E6.43201
G1 X109.067 Y121.134 E6.47261
G1 X107.899 Y121.038 E6.53108
G1 X106.996 Y120.969 E6.57626
G1 X106.476 Y120.935 E6.60226
G1 X105.931 Y120.898 E6.62951
G1 X105.365 Y120.863 E6.65781
G1 X104.616 Y120.814 E6.69525
G1 X104.069 Y120.784 E6.72259
G1 X103.562 Y120.753 E6.74793
G1 X102.970 Y120.722 E6.77750
G1 X102.970 Y120.721 E6.77755
G1 X102.317 Y120.690 E6.81017
G1 X102.317 Y120.691 E6.81022
G1 X101.633 Y120.659 E6.84438
G1 X100.957 Y120.625 E6.87815
G1 X100.329 Y120.598 E6.90951
G1 X99.787 Y120.578 E6.93657
G1 X99.184 Y120.549 E6.96669
G1 X99.184 Y120.550 E6.96673
G1 X98.343 Y120.513 E7.00873
G1 X97.818 Y120.491 E7.03495
G1 X96.453 Y120.437 E7.10310
G1 X95.937 Y120.412 E7.12888
G1 X94.556 Y120.351 E7.19784
G1 X94.040 Y120.326 E7.22361
G1 X90.485 Y120.147 E7.40120
G1 X90.391 Y118.641 E7.47648
G1 X89.593 Y118.481 E7.51708
G1 X89.046 Y118.366 E7.54497
G1 X88.088 Y118.166 E7.59380
G1 X86.628 Y117.844 E7.66839
G1 X85.906 Y117.681 E7.70531
G1 X85.216 Y117.520 E7.74066
G1 X84.703 Y117.403 E7.76691
G1 X84.224 Y117.290 E7.79147
G1 X83.719 Y117.174 E7.81732
G1 X82.971 Y116.996 E7.85568
G1 X82.435 Y116.871 E7.88314
G1 X81.574 Y116.661 E7.92735
G1 X80.904 Y116.500 E7.96173
G1 X79.601 Y116.181 E8.02866
G1 X78.628 Y115.934 E8.07874
G1 X78.084 Y115.790 E8.10681
G1 X77.308 Y115.577 E8.14696
G1 X76.725 Y115.410 E8.17722
G1 X76.130 Y115.231 E8.20821
G1 X75.292 Y114.966 E8.25206
G1 X74.792 Y114.805 E8.27827
G1 X74.163 Y114.595 E8.31135
G1 X73.557 Y114.382 E8.34340
G1 X71.135 Y113.527 E8.47154
G1 X71.135 Y102.415 E9.02592
G1 F2400 E5.02592
G0 F9000 X75.194 Y108.127
;TYPE:WALL-INNER
G1 F2400 E9.02592
G1 F1800 X76.638 Y108.646 E9.10248
G1 X78.005 Y109.132 E9.17486
G1 X80.698 Y109.990 E9.31587
G1 X83.273 Y110.735 E9.44960
G1 X85.394 Y111.304 E9.55916
G1 X86.647 Y111.621 E9.62364
G1 X88.157 Y111.997 E9.70128
G1 X89.587 Y112.324 E9.77446
G1 X91.049 Y112.635 E9.84903
G1 X92.573 Y112.916 E9.92635
G1 X94.084 Y113.162 E10.00272
G1 X95.020 Y113.296 E10.04990
G1 X95.894 Y113.405 E10.09384
G1 X96.803 Y113.507 E10.13947
G1 X97.744 Y113.596 E10.18663
G1 X99.098 Y113.706 E10.25440
G1 X99.711 Y113.747 E10.28506
G1 X99.904 Y113.745 E10.29468
G1 X99.976 Y113.747 E10.29828
G1 X101.329 Y113.742 E10.36578
G1 X102.246 Y113.755 E10.41153
G1 X102.646 Y113.754 E10.43149
G1 X103.770 Y113.769 E10.48757
G1 X104.280 Y113.779 E10.51302
G1 X104.843 Y113.786 E10.54111
G1 X105.918 Y113.815 E10.59476
G1 X106.592 Y113.829 E10.62840
G1 X107.191 Y113.879 E10.65838
G1 X108.121 Y113.902 E10.70480
G1 X108.341 Y113.909 E10.71578
G1 X109.476 Y114.018 E10.77266
G1 X109.919 Y114.036 E10.79478
G1 X111.087 Y114.151 E10.85334
G1 X111.595 Y114.200 E10.87880
G1 X112.130 Y114.253 E10.90562
G1 X113.380 Y114.406 E10.96845
G1 X113.901 Y114.470 E10.99464
G1 X114.403 Y114.539 E11.01992
G1 X115.051 Y114.635 E11.05260
G1 X115.546 Y114.708 E11.07756
G1 X116.078 Y114.794 E11.10445
G1 X116.622 Y114.875 E11.13189
G1 X117.167 Y114.967 E11.15946
G1 X117.900 Y115.084 E11.19649
G1 X118.997 Y115.269 E11.25200
G1 X121.338 Y115.660 E11.37041
G1 X122.509 Y115.838 E11.42950
G1 X123.198 Y115.941 E11.46426
G1 X123.697 Y116.012 E11.48940
G1 X124.204 Y116.081 E11.51493
G1 X125.573 Y116.259 E11.58380
G1 X126.673 Y116.388 E11.63906
G1 X128.047 Y116.540 E11.70803
G1 X128.804 Y116.615 E11.74598
G1 X130.769 Y116.806 E11.84447
G1 X131.585 Y116.878 E11.88534
G1 X132.089 Y116.923 E11.91059
G1 X132.667 Y116.972 E11.93953
G1 X133.224 Y117.020 E11.96742
G1 X133.955 Y117.076 E12.00400
G1 X134.580 Y117.125 E12.03527
G1 X135.347 Y117.183 E12.07365
G1 X135.967 Y117.229 E12.10467
G1 X137.109 Y117.308 E12.16178
G1 X138.322 Y117.388 E12.22242
G1 X138.984 Y117.425 E12.25550
G1 X139.636 Y117.464 E12.28809
G1 X140.174 Y117.493 E12.31497
G1 X140.612 Y117.515 E12.33685
G1 X141.840 Y117.742 E12.39915
G1 X142.417 Y117.847 E12.42841
G1 X143.088 Y117.966 E12.46241
G1 X144.274 Y118.184 E12.52257
G1 X144.787 Y118.282 E12.54863
G1 X145.064 Y118.338 E12.56273
G1 X145.064 Y121.153 E12.70317
G1 X143.766 Y120.922 E12.76894
G1 X143.208 Y120.814 E12.79730
G1 X142.635 Y120.709 E12.82636
G1 X142.046 Y120.594 E12.85630
G1 X140.839 Y120.348 E12.91776
G1 X140.295 Y120.234 E12.94549
G1 X139.437 Y120.051 E12.98926
G1 X138.607 Y119.868 E13.03166
G1 X138.105 Y119.756 E13.05732
G1 X137.585 Y119.634 E13.08397
G1 X137.336 Y119.578 E13.09670
G1 X136.700 Y119.566 E13.12844
G1 X136.131 Y119.560 E13.15683
G1 X135.517 Y119.548 E13.18746
G1 X135.015 Y119.537 E13.21251
G1 X134.465 Y119.524 E13.23996
G1 X133.234 Y119.498 E13.30139
G1 X132.729 Y119.484 E13.32659
G1 X132.196 Y119.471 E13.35319
G1 X131.361 Y119.447 E13.39487
G1 X129.332 Y119.376 E13.49616
G1 X128.548 Y119.345 E13.53530
G1 X127.929 Y119.322 E13.56621
G1 X126.486 Y119.251 E13.63829
G1 X125.838 Y119.208 E13.67069
G1 X125.077 Y119.165 E13.70871
G1 X124.422 Y119.118 E13.74147
G1 X123.829 Y119.071 E13.77115
G1 X123.197 Y119.010 E13.80283
G1 X122.490 Y118.949 E13.83823
G1 X121.626 Y118.857 E13.88158
G1 X121.000 Y118.779 E13.91305
G1 X120.398 Y118.711 E13.94328
G1 X119.686 Y118.618 E13.97910
G1 X119.065 Y118.532 E14.01038
G1 X117.637 Y118.337 E14.08228
G1 X116.921 Y118.235 E14.11837
G1 X116.314 Y118.152 E14.14893
G1 X115.768 Y118.075 E14.17644
G1 X114.940 Y117.962 E14.21813
G1 X114.403 Y117.895 E14.24513
G1 X113.877 Y117.828 E14.27159
G1 X113.207 Y117.741 E14.30529
G1 X112.631 Y117.676 E14.33421
G1 X112.120 Y117.618 E14.35987
G1 X110.832 Y117.484 E14.42448
G1 X110.231 Y117.429 E14.45458
G1 X109.432 Y117.351 E14.49464
G1 X108.191 Y117.249 E14.55676
G1 X107.282 Y117.179 E14.60224
G1 X106.731 Y117.143 E14.62979
G1 X106.188 Y117.106 E14.65694
G1 X105.606 Y117.070 E14.68604
G1 X104.830 Y117.020 E14.72483
G1 X104.291 Y116.990 E14.75176
G1 X103.763 Y116.958 E14.77815
G1 X103.167 Y116.927 E14.80793
G1 X102.492 Y116.895 E14.84164
G1 X101.818 Y116.864 E14.87530
G1 X101.147 Y116.830 E14.90882
G1 X100.474 Y116.800 E14.94243
G1 X99.941 Y116.781 E14.96904
G1 X99.352 Y116.754 E14.99846
G1 X98.510 Y116.717 E15.04051
G1 X96.623 Y116.641 E15.13472
G1 X96.107 Y116.616 E15.16050
G1 X94.731 Y116.555 E15.22921
G1 X94.226 Y116.531 E15.25444
G1 X94.070 Y116.523 E15.26223
G1 X94.066 Y116.464 E15.26518
G1 X94.067 Y116.446 E15.26608
G1 X94.058 Y116.341 E15.27134
G1 X94.059 Y116.274 E15.27468
G1 X94.044 Y116.093 E15.28374
G1 X94.046 Y115.993 E15.28873
G1 X93.996 Y115.453 E15.31579
G1 X92.775 Y115.233 E15.37768
G1 X91.662 Y115.021 E15.43421
G1 X90.356 Y114.758 E15.50068
G1 X88.890 Y114.451 E15.57540
G1 X87.453 Y114.134 E15.64882
G1 X86.753 Y113.977 E15.68461
G1 X86.062 Y113.815 E15.72002
G1 X85.565 Y113.702 E15.74544
G1 X85.073 Y113.586 E15.77066
G1 X83.852 Y113.299 E15.83324
G1 X83.319 Y113.175 E15.86054
G1 X82.474 Y112.969 E15.90393
G1 X81.801 Y112.808 E15.93846
G1 X80.523 Y112.494 E16.00411
G1 X79.579 Y112.254 E16.05271
G1 X79.075 Y112.122 E16.07870
G1 X78.332 Y111.917 E16.11715
G1 X77.792 Y111.762 E16.14518
G1 X77.244 Y111.598 E16.17372
G1 X76.447 Y111.346 E16.21542
G1 X75.399 Y111.002 E16.27045
G1 X74.935 Y110.838 E16.29501
G1 X74.935 Y108.023 E16.43545
G1 X75.194 Y108.127 E16.44937
G0 F9000 X75.336 Y107.753
;TYPE:WALL-OUTER
G1 F1800 X78.133 Y108.752 E16.59755
G1 X80.815 Y109.607 E16.73799
G1 X83.380 Y110.350 E16.87122
G1 X85.495 Y110.917 E16.98046
G1 X88.249 Y111.607 E17.12210
G1 X89.673 Y111.933 E17.19499
G1 X91.127 Y112.242 E17.26915
G1 X92.642 Y112.522 E17.34601
G1 X94.144 Y112.767 E17.42194
G1 X95.074 Y112.899 E17.46880
G1 X95.941 Y113.008 E17.51239
G1 X96.843 Y113.109 E17.55768
G1 X97.779 Y113.197 E17.60458
G1 X99.127 Y113.307 E17.67205
G1 X99.722 Y113.347 E17.70181
G1 X99.912 Y113.345 E17.71129
G1 X99.981 Y113.347 E17.71473
G1 X101.334 Y113.342 E17.78223
G1 X102.249 Y113.355 E17.82789
G1 X102.650 Y113.354 E17.84789
G1 X103.778 Y113.369 E17.90417
G1 X104.287 Y113.379 E17.92957
G1 X104.854 Y113.386 E17.95786
G1 X105.927 Y113.415 E18.01141
G1 X106.618 Y113.429 E18.04589
G1 X107.213 Y113.480 E18.07569
G1 X108.133 Y113.502 E18.12160
G1 X108.360 Y113.509 E18.13293
G1 X109.503 Y113.619 E18.19022
G1 X109.940 Y113.636 E18.21204
G1 X112.179 Y113.856 E18.32428
G1 X113.959 Y114.075 E18.41375
G1 X114.461 Y114.144 E18.43903
G1 X115.612 Y114.314 E18.49708
G1 X116.139 Y114.399 E18.52371
G1 X116.681 Y114.479 E18.55105
G1 X117.232 Y114.572 E18.57892
G1 X117.969 Y114.690 E18.61616
G1 X121.401 Y115.264 E18.78976
G1 X123.256 Y115.545 E18.88337
G1 X123.752 Y115.616 E18.90836
G1 X124.257 Y115.684 E18.93378
G1 X125.622 Y115.862 E19.00246
G1 X126.718 Y115.991 E19.05752
G1 X128.089 Y116.142 E19.12633
G1 X130.805 Y116.408 E19.26248
G1 X133.257 Y116.621 E19.38527
G1 X135.994 Y116.829 E19.52222
G1 X138.347 Y116.989 E19.63988
G1 X140.194 Y117.094 E19.73218
G1 X140.661 Y117.117 E19.75550
G1 X142.487 Y117.453 E19.84813
G1 X143.157 Y117.572 E19.88208
G1 X144.347 Y117.791 E19.94245
G1 X144.866 Y117.890 E19.96881
G1 X145.464 Y118.011 E19.99925
G1 X145.464 Y121.627 E20.17965
G1 X144.563 Y121.468 E20.22529
G1 X143.697 Y121.316 E20.26916
G1 X143.134 Y121.207 E20.29777
G1 X142.556 Y121.101 E20.32709
G1 X141.971 Y120.987 E20.35682
G1 X140.760 Y120.740 E20.41848
G1 X139.353 Y120.442 E20.49024
G1 X138.014 Y120.145 E20.55866
G1 X137.496 Y120.024 E20.58520
G1 X137.288 Y119.977 E20.59584
G1 X136.694 Y119.966 E20.62548
G1 X136.123 Y119.960 E20.65397
G1 X133.223 Y119.898 E20.79868
G1 X131.347 Y119.847 E20.89231
G1 X127.917 Y119.722 E21.06355
G1 X126.459 Y119.650 E21.13638
G1 X125.813 Y119.607 E21.16868
G1 X125.054 Y119.564 E21.20661
G1 X124.391 Y119.517 E21.23977
G1 X123.801 Y119.470 E21.26929
G1 X123.161 Y119.409 E21.30137
G1 X122.450 Y119.347 E21.33697
G1 X121.584 Y119.255 E21.38042
G1 X120.953 Y119.176 E21.41215
G1 X120.343 Y119.107 E21.44278
G1 X119.636 Y119.015 E21.47835
G1 X117.089 Y118.664 E21.60662
G1 X116.881 Y118.634 E21.61710
G1 X116.862 Y118.633 E21.61805
G1 X116.262 Y118.549 E21.64828
G1 X115.713 Y118.471 E21.67594
G1 X114.888 Y118.359 E21.71748
G1 X113.159 Y118.138 E21.80444
G1 X112.077 Y118.016 E21.85876
G1 X110.793 Y117.882 E21.92317
G1 X110.196 Y117.828 E21.95308
G1 X109.396 Y117.750 E21.99318
G1 X108.159 Y117.648 E22.05510
G1 X107.254 Y117.578 E22.10039
G1 X104.806 Y117.419 E22.22278
G1 X104.267 Y117.389 E22.24971
G1 X103.740 Y117.357 E22.27605
G1 X102.474 Y117.294 E22.33929
G1 X100.458 Y117.200 E22.43998
G1 X99.929 Y117.181 E22.46639
G1 X98.493 Y117.116 E22.53810
G1 X96.604 Y117.040 E22.63242
G1 X93.689 Y116.903 E22.77801
G1 X93.670 Y116.600 E22.79316
G1 X93.671 Y116.577 E22.79431
G1 X93.669 Y116.533 E22.79650
