;Generated with Cura_SteamEngine 15.01
; Default start code
G28 ; Home extruder
G1 Z15 F100
M107 ; Turn off fan
G90 ; Absolute positioning
M82 ; Extruder in absolute mode
M190 S50
; Activate all used extruder
M104 T0 S210
G92 E0 ; Reset extruder position
; Wait for all used extruders to reach temperature
M109 T0 S210
;Layer count: 178
;LAYER:0
M107
G0 F9000 X79.102 Y102.621 Z0.300
G0 X80.979 Y102.741
;TYPE:SKIRT
G1 F1800 X81.142 Y102.730 E0.00815
G1 X81.220 Y102.739 E0.01207
G1 X81.300 Y102.736 E0.01606
G1 X81.413 Y102.592 E0.02519
G1 X81.982 Y101.917 E0.06924
G1 X82.522 Y101.329 E0.10907
G1 X83.036 Y100.803 E0.14576
G1 X83.516 Y100.349 E0.17872
G1 X84.375 Y99.580 E0.23624
G1 X84.945 Y99.089 E0.27377
G1 X84.944 Y99.088 E0.27384
G1 X85.967 Y98.199 E0.34146
G1 X86.357 Y97.862 E0.36718
G1 X86.741 Y97.532 E0.39244
G1 X87.152 Y97.180 E0.41943
G1 X88.224 Y96.272 E0.48952
G1 X89.048 Y95.617 E0.54204
G1 X89.536 Y95.251 E0.57247
G1 X90.066 Y94.872 E0.60498
G1 X90.646 Y94.473 E0.64010
G1 X91.119 Y94.160 E0.66840
G1 X91.609 Y93.839 E0.69762
G1 X92.238 Y93.441 E0.73476
G1 X93.318 Y92.782 E0.79788
G1 X94.103 Y92.320 E0.84332
G1 X94.937 Y91.845 E0.89120
G1 X95.831 Y91.357 E0.94202
G1 X96.482 Y91.025 E0.97848
G1 X97.337 Y90.589 E1.02636
G1 X98.381 Y90.090 E1.08409
G1 X98.953 Y89.826 E1.11552
G1 X100.313 Y89.237 E1.18946
G1 X101.428 Y88.804 E1.24913
G1 X101.960 Y88.604 E1.27749
G1 X103.205 Y88.160 E1.34343
G1 X103.817 Y87.960 E1.37556
G1 X104.810 Y87.641 E1.42759
G1 X105.457 Y87.446 E1.46130
G1 X106.526 Y87.129 E1.51693
G1 X107.374 Y86.888 E1.56091
G1 X108.331 Y86.621 E1.61048
G1 X109.344 Y86.353 E1.66276
G1 X110.166 Y86.135 E1.70519
G1 X111.250 Y85.863 E1.76094
G1 X111.769 Y85.732 E1.78765
G1 X112.940 Y85.453 E1.84771
G1 X113.722 Y85.267 E1.88781
G1 X114.572 Y85.075 E1.93128
G1 X115.390 Y84.893 E1.97309
G1 X116.950 Y84.571 E2.05256
G1 X118.462 Y84.287 E2.12931
G1 X119.951 Y84.043 E2.20459
G1 X121.419 Y83.837 E2.27855
G1 X122.176 Y83.742 E2.31661
G1 X122.938 Y83.655 E2.35487
G1 X124.108 Y83.537 E2.41354
G1 X124.623 Y83.495 E2.43932
G1 X125.297 Y83.434 E2.47308
G1 X125.894 Y83.389 E2.50295
G1 X126.553 Y83.339 E2.53593
G1 X127.196 Y83.298 E2.56807
G1 X127.196 Y83.297 E2.56812
G1 X127.839 Y83.254 E2.60027
G1 X128.396 Y83.224 E2.62810
G1 X129.161 Y83.180 E2.66633
G1 X129.776 Y83.151 E2.69705
G1 X130.527 Y83.115 E2.73456
G1 X131.229 Y83.088 E2.76960
G1 X131.919 Y83.059 E2.80406
G1 X132.718 Y83.033 E2.84394
G1 X133.357 Y83.010 E2.87584
G1 X134.098 Y82.989 E2.91283
G1 X134.901 Y82.970 E2.95290
G1 X135.270 Y82.961 E2.97131
G1 X135.311 Y82.963 E2.97336
G1 X135.838 Y82.953 E2.99966
G1 X136.507 Y82.941 E3.03304
G1 X137.189 Y82.932 E3.06707
G1 X137.894 Y82.923 E3.10224
G1 X138.411 Y82.916 E3.12804
G1 X138.982 Y82.910 E3.15653
G1 X139.714 Y82.901 E3.19305
G1 X140.260 Y82.895 E3.22029
G1 X140.963 Y82.889 E3.25537
G1 X141.198 Y82.887 E3.26709
G1 X141.217 Y82.887 E3.26804
G1 X141.975 Y82.875 E3.30586
G1 X142.546 Y82.867 E3.33435
G1 X143.046 Y82.861 E3.35930
G1 X143.679 Y82.851 E3.39088
G1 X144.233 Y82.844 E3.41852
G1 X144.233 Y82.845 E3.41857
G1 X144.997 Y82.830 E3.45670
G1 X145.538 Y82.820 E3.48369
G1 X146.057 Y82.814 E3.50959
G1 X146.581 Y82.808 E3.53573
G1 X147.177 Y82.798 E3.56547
G1 X147.742 Y82.792 E3.59366
G1 X148.324 Y82.782 E3.62270
G1 X148.900 Y82.777 E3.65144
G1 X149.138 Y82.772 E3.66331
G1 X149.495 Y82.773 E3.68113
G1 X150.012 Y82.770 E3.70692
G1 X150.567 Y82.765 E3.73461
G1 X151.079 Y82.761 E3.76015
G1 X151.392 Y82.759 E3.77577
G1 X151.474 Y82.760 E3.77986
G1 X151.648 Y82.758 E3.78854
G1 X152.022 Y82.760 E3.80720
G1 X152.312 Y82.757 E3.82167
G1 X155.449 Y82.973 E3.97855
G1 X155.449 Y92.341 E4.44592
G1 X151.980 Y92.355 E4.61899
G1 X151.939 Y92.354 E4.62104
G1 X151.669 Y92.355 E4.63451
G1 X151.373 Y92.353 E4.64927
G1 X151.054 Y92.355 E4.66519
G1 X151.032 Y92.354 E4.66629
G1 X150.516 Y92.357 E4.69203
G1 X150.004 Y92.361 E4.71758
G1 X149.886 Y92.360 E4.72346
G1 X149.424 Y92.362 E4.74651
G1 X149.324 Y92.361 E4.75150
G1 X148.742 Y92.368 E4.78054
G1 X148.164 Y92.370 E4.80938
G1 X147.587 Y92.378 E4.83817
G1 X147.036 Y92.383 E4.86566
G1 X146.451 Y92.388 E4.89484
G1 X145.913 Y92.392 E4.92169
G1 X145.747 Y92.391 E4.92997
G1 X145.081 Y92.402 E4.96320
G1 X144.395 Y92.407 E4.99742
G1 X143.864 Y92.414 E5.02392
G1 X143.250 Y92.423 E5.05455
G1 X142.698 Y92.429 E5.08210
G1 X141.200 Y92.445 E5.15684
G1 X140.685 Y92.450 E5.18253
G1 X140.659 Y92.449 E5.18383
G1 X140.231 Y92.454 E5.20518
G1 X139.693 Y92.461 E5.23203
G1 X139.173 Y92.468 E5.25797
G1 X138.335 Y92.477 E5.29978
G1 X138.335 Y92.476 E5.29983
G1 X137.754 Y92.488 E5.32882
G1 X137.711 Y92.487 E5.33097
G1 X137.437 Y92.494 E5.34464
G1 X136.762 Y92.502 E5.37832
G1 X136.124 Y92.512 E5.41016
G1 X136.124 Y92.511 E5.41021
G1 X135.530 Y92.523 E5.43985
G1 X134.772 Y92.547 E5.47768
G1 X133.761 Y92.577 E5.52814
G1 X133.761 Y92.576 E5.52819
G1 X133.045 Y92.600 E5.56393
G1 X132.437 Y92.622 E5.59429
G1 X132.437 Y92.621 E5.59434
G1 X131.587 Y92.655 E5.63678
G1 X131.587 Y92.656 E5.63683
G1 X130.280 Y92.714 E5.70210
G1 X129.559 Y92.756 E5.73813
G1 X129.001 Y92.786 E5.76601
G1 X128.210 Y92.839 E5.80556
G1 X127.328 Y92.899 E5.84967
G1 X127.328 Y92.898 E5.84972
G1 X126.566 Y92.952 E5.88783
G1 X125.760 Y93.022 E5.92819
G1 X124.920 Y93.101 E5.97028
G1 X124.369 Y93.152 E5.99789
G1 X123.658 Y93.233 E6.03359
G1 X122.933 Y93.324 E6.07005
G1 X122.038 Y93.442 E6.11508
G1 X121.060 Y93.593 E6.16445
G1 X121.060 Y93.592 E6.16450
G1 X120.134 Y93.745 E6.21133
G1 X119.132 Y93.930 E6.26216
G1 X118.380 Y94.076 E6.30038
G1 X117.230 Y94.317 E6.35900
G1 X116.167 Y94.553 E6.41333
G1 X115.495 Y94.706 E6.44771
G1 X114.868 Y94.853 E6.47984
G1 X114.302 Y94.988 E6.50887
G1 X113.643 Y95.149 E6.54271
G1 X113.643 Y95.148 E6.54276
G1 X113.109 Y95.282 E6.57023
G1 X110.921 Y95.851 E6.68302
G1 X109.923 Y96.122 E6.73462
G1 X109.386 Y96.270 E6.76241
G1 X108.776 Y96.450 E6.79414
G1 X107.667 Y96.782 E6.85189
G1 X106.596 Y97.125 E6.90800
G1 X105.682 Y97.436 E6.95616
G1 X104.884 Y97.729 E6.99857
G1 X104.044 Y98.065 E7.04371
G1 X103.177 Y98.417 E7.09039
G1 X102.416 Y98.765 E7.13214
G1 X101.737 Y99.077 E7.16942
G1 X101.252 Y99.323 E7.19655
G1 X101.252 Y99.322 E7.19660
G1 X100.563 Y99.676 E7.23525
G1 X99.271 Y100.376 E7.30856
G1 X98.897 Y100.585 E7.32994
G1 X98.193 Y100.996 E7.37061
G1 X97.433 Y101.451 E7.41480
G1 X96.974 Y101.737 E7.44178
G1 X96.413 Y102.095 E7.47498
G1 X95.688 Y102.567 E7.51814
G1 X95.215 Y102.893 E7.54680
G1 X94.780 Y103.204 E7.57348
G1 X94.449 Y103.447 E7.59397
G1 X93.651 Y104.090 E7.64509
G1 X93.106 Y104.534 E7.68017
G1 X92.717 Y104.862 E7.70555
G1 X91.895 Y105.558 E7.75929
G1 X91.896 Y105.559 E7.75936
G1 X91.506 Y105.893 E7.78497
G1 X91.088 Y106.252 E7.81246
G1 X90.150 Y107.067 E7.87446
G1 X89.718 Y107.454 E7.90339
G1 X89.270 Y107.867 E7.93379
G1 X88.959 Y108.174 E7.95559
G1 X88.615 Y108.540 E7.98065
G1 X88.215 Y108.999 E8.01103
G1 X87.779 Y109.545 E8.04589
G1 X87.515 Y109.893 E8.06768
G1 X87.246 Y110.267 E8.09066
G1 X86.800 Y110.919 E8.13008
G1 X86.440 Y111.461 E8.16254
G1 X85.952 Y112.229 E8.20793
G1 X85.595 Y112.812 E8.24204
G1 X85.244 Y113.393 E8.27590
G1 X85.036 Y113.744 E8.29626
G1 X84.427 Y114.940 E8.36322
G1 X83.890 Y116.007 E8.42281
G1 X83.516 Y116.756 E8.46458
G1 X82.406 Y118.978 E8.58850
G1 X81.969 Y119.862 E8.63770
G1 X80.978 Y121.878 E8.74977
G1 X79.667 Y124.586 E8.89987
G1 X78.986 Y125.992 E8.97781
G1 X78.985 Y125.992 E8.97786
G1 X78.331 Y127.358 E9.05342
G1 X77.627 Y128.892 E9.13763
G1 X76.881 Y130.508 E9.22643
G1 X76.545 Y131.284 E9.26861
G1 X76.260 Y131.939 E9.30425
G1 X75.595 Y133.483 E9.38812
G1 X75.029 Y134.920 E9.46518
G1 X74.072 Y137.300 E9.59315
G1 X63.204 Y137.300 E10.13536
G1 X65.004 Y132.388 E10.39636
G1 X65.246 Y131.738 E10.43096
G1 X65.448 Y131.209 E10.45921
G1 X65.666 Y130.651 E10.48910
G1 X65.911 Y130.034 E10.52222
G1 X66.150 Y129.438 E10.55426
G1 X66.828 Y127.809 E10.64228
G1 X67.093 Y127.197 E10.67556
G1 X67.094 Y127.197 E10.67561
G1 X67.570 Y126.081 E10.73614
G1 X68.513 Y123.967 E10.85162
G1 X68.946 Y122.999 E10.90453
G1 X70.357 Y119.948 E11.07223
G1 X71.069 Y118.426 E11.15606
G1 X71.382 Y117.768 E11.19242
G1 X71.761 Y116.975 E11.23627
G1 X72.764 Y114.881 E11.35210
G1 X73.231 Y113.919 E11.40545
G1 X73.486 Y113.397 E11.43444
G1 X73.756 Y112.846 E11.46505
G1 X74.463 Y111.415 E11.54468
G1 X74.763 Y110.811 E11.57833
G1 X75.415 Y109.513 E11.65079
G1 X76.156 Y108.068 E11.73181
G1 X76.406 Y107.585 E11.75894
G1 X76.863 Y106.710 E11.80819
G1 X77.168 Y106.136 E11.84062
G1 X77.456 Y105.593 E11.87129
G1 X77.766 Y105.016 E11.90397
G1 X78.032 Y104.534 E11.93143
G1 X79.102 Y102.621 E12.04079
G1 X80.979 Y102.741 E12.13462
G1 F2400 E8.13462
G0 F9000 X81.779 Y106.523
;TYPE:WALL-INNER
G1 F2400 E12.13462
G1 F1800 X82.626 Y106.507 E12.17689
G1 X83.243 Y106.497 E12.20767
G1 X83.714 Y105.831 E12.24837
G1 X84.038 Y105.402 E12.27519
G1 X84.370 Y104.980 E12.30198
G1 X84.844 Y104.418 E12.33866
G1 X85.287 Y103.936 E12.37132
G1 X85.692 Y103.521 E12.40025
G1 X86.082 Y103.152 E12.42703
G1 X86.881 Y102.437 E12.48053
G1 X87.437 Y101.956 E12.51721
G1 X88.457 Y101.070 E12.58461
G1 X88.836 Y100.742 E12.60962
G1 X89.616 Y100.073 E12.66088
G1 X90.642 Y99.204 E12.72796
G1 X91.364 Y98.630 E12.77398
G1 X91.777 Y98.320 E12.79974
G1 X92.243 Y97.987 E12.82832
G1 X92.776 Y97.621 E12.86058
G1 X93.210 Y97.333 E12.88656
G1 X93.661 Y97.038 E12.91345
G1 X94.241 Y96.671 E12.94769
G1 X95.277 Y96.038 E13.00826
G1 X96.003 Y95.610 E13.05031
G1 X96.782 Y95.167 E13.09502
G1 X97.598 Y94.722 E13.14139
G1 X99.027 Y93.994 E13.22140
G1 X99.995 Y93.530 E13.27495
G1 X100.512 Y93.292 E13.30335
G1 X101.766 Y92.749 E13.37153
G1 X102.782 Y92.354 E13.42591
G1 X103.271 Y92.171 E13.45196
G1 X104.440 Y91.754 E13.51388
G1 X104.989 Y91.575 E13.54269
G1 X105.934 Y91.271 E13.59221
G1 X106.546 Y91.087 E13.62410
G1 X107.588 Y90.777 E13.67833
G1 X108.401 Y90.547 E13.72049
G1 X109.325 Y90.289 E13.76835
G1 X111.110 Y89.816 E13.86048
G1 X112.179 Y89.548 E13.91546
G1 X112.671 Y89.424 E13.94077
G1 X114.585 Y88.968 E14.03894
G1 X115.402 Y88.782 E14.08074
G1 X116.181 Y88.610 E14.12054
G1 X117.680 Y88.301 E14.19690
G1 X119.127 Y88.029 E14.27035
G1 X120.529 Y87.799 E14.34123
G1 X121.925 Y87.603 E14.41156
G1 X122.624 Y87.515 E14.44671
G1 X123.339 Y87.434 E14.48261
G1 X124.454 Y87.322 E14.53852
G1 X124.965 Y87.280 E14.56410
G1 X125.615 Y87.221 E14.59666
G1 X126.183 Y87.178 E14.62508
G1 X126.817 Y87.130 E14.65680
G1 X127.453 Y87.089 E14.68860
G1 X128.072 Y87.047 E14.71955
G1 X128.597 Y87.019 E14.74578
G1 X129.364 Y86.975 E14.78411
G1 X130.687 Y86.911 E14.85019
G1 X131.374 Y86.886 E14.88449
G1 X132.058 Y86.856 E14.91864
G1 X132.857 Y86.831 E14.95853
G1 X133.482 Y86.808 E14.98973
G1 X134.198 Y86.788 E15.02546
G1 X135.242 Y86.763 E15.07756
G1 X135.257 Y86.764 E15.07831
G1 X135.906 Y86.752 E15.11070
G1 X136.565 Y86.741 E15.14358
G1 X138.458 Y86.716 E15.23803
G1 X139.028 Y86.710 E15.26647
G1 X140.298 Y86.695 E15.32984
G1 X141.003 Y86.689 E15.36501
G1 X141.178 Y86.687 E15.37374
G1 X141.231 Y86.688 E15.37639
G1 X142.034 Y86.675 E15.41645
G1 X142.597 Y86.667 E15.44454
G1 X143.105 Y86.661 E15.46989
G1 X143.735 Y86.651 E15.50132
G1 X144.284 Y86.644 E15.52872
G1 X145.067 Y86.629 E15.56779
G1 X145.594 Y86.620 E15.59408
G1 X146.645 Y86.608 E15.64652
G1 X147.231 Y86.598 E15.67576
G1 X147.806 Y86.592 E15.70445
G1 X148.377 Y86.582 E15.73294
G1 X148.937 Y86.577 E15.76088
G1 X149.178 Y86.572 E15.77291
G1 X149.505 Y86.573 E15.78922
G1 X150.045 Y86.570 E15.81616
G1 X151.108 Y86.561 E15.86920
G1 X151.383 Y86.559 E15.88292
G1 X151.476 Y86.560 E15.88756
G1 X151.649 Y86.558 E15.89619
G1 X151.649 Y88.555 E15.99582
G1 X151.372 Y88.553 E16.00964
G1 X151.121 Y88.555 E16.02216
G1 X151.088 Y88.554 E16.02381
G1 X150.486 Y88.557 E16.05384
G1 X150.007 Y88.561 E16.07774
G1 X149.903 Y88.560 E16.08293
G1 X149.433 Y88.562 E16.10638
G1 X149.310 Y88.561 E16.11252
G1 X148.711 Y88.568 E16.14240
G1 X148.114 Y88.570 E16.17219
G1 X147.542 Y88.578 E16.20073
G1 X145.906 Y88.592 E16.28235
G1 X145.706 Y88.591 E16.29233
G1 X145.033 Y88.602 E16.32591
G1 X144.347 Y88.607 E16.36014
G1 X143.809 Y88.614 E16.38698
G1 X143.200 Y88.623 E16.41737
G1 X141.161 Y88.645 E16.51910
G1 X140.747 Y88.649 E16.53975
G1 X140.714 Y88.648 E16.54140
G1 X139.642 Y88.661 E16.59489
G1 X139.126 Y88.668 E16.62063
G1 X138.291 Y88.677 E16.66229
G1 X137.754 Y88.687 E16.68909
G1 X137.701 Y88.686 E16.69173
G1 X136.704 Y88.702 E16.74148
G1 X136.063 Y88.712 E16.77346
G1 X135.441 Y88.724 E16.80450
G1 X133.647 Y88.778 E16.89404
G1 X132.908 Y88.802 E16.93093
G1 X132.298 Y88.824 E16.96139
G1 X131.419 Y88.860 E17.00528
G1 X130.069 Y88.920 E17.07269
G1 X129.344 Y88.962 E17.10892
G1 X128.758 Y88.994 E17.13820
G1 X127.953 Y89.047 E17.17845
G1 X127.070 Y89.107 E17.22261
G1 X126.253 Y89.165 E17.26347
G1 X125.419 Y89.237 E17.30523
G1 X123.948 Y89.375 E17.37894
G1 X123.226 Y89.457 E17.41520
G1 X122.457 Y89.554 E17.45387
G1 X121.465 Y89.685 E17.50379
G1 X120.477 Y89.838 E17.55367
G1 X119.464 Y90.005 E17.60489
G1 X118.440 Y90.193 E17.65683
G1 X117.636 Y90.350 E17.69770
G1 X116.410 Y90.606 E17.76018
G1 X115.341 Y90.844 E17.81482
G1 X114.649 Y91.001 E17.85022
G1 X113.990 Y91.156 E17.88400
G1 X113.402 Y91.296 E17.91415
G1 X112.740 Y91.458 E17.94815
G1 X112.156 Y91.604 E17.97819
G1 X109.962 Y92.174 E18.09128
G1 X108.915 Y92.458 E18.14540
G1 X108.360 Y92.611 E18.17412
G1 X107.686 Y92.810 E18.20919
G1 X106.525 Y93.158 E18.26965
G1 X105.433 Y93.507 E18.32685
G1 X104.407 Y93.856 E18.38092
G1 X103.522 Y94.182 E18.42797
G1 X102.618 Y94.542 E18.47651
G1 X101.679 Y94.923 E18.52707
G1 X100.082 Y95.655 E18.61472
G1 X99.529 Y95.936 E18.64566
G1 X98.759 Y96.331 E18.68884
G1 X97.458 Y97.036 E18.76266
G1 X97.007 Y97.288 E18.78844
G1 X96.244 Y97.733 E18.83251
G1 X95.476 Y98.193 E18.87717
G1 X94.933 Y98.531 E18.90908
G1 X94.367 Y98.893 E18.94260
G1 X93.566 Y99.415 E18.99030
G1 X93.037 Y99.779 E19.02233
G1 X92.568 Y100.114 E19.05109
G1 X92.137 Y100.430 E19.07775
G1 X91.252 Y101.143 E19.13445
G1 X90.680 Y101.609 E19.17126
G1 X90.267 Y101.958 E19.19823
G1 X89.425 Y102.671 E19.25328
G1 X89.033 Y103.007 E19.27904
G1 X88.607 Y103.373 E19.30706
G1 X87.617 Y104.234 E19.37251
G1 X87.146 Y104.656 E19.40407
G1 X86.642 Y105.121 E19.43828
G1 X86.250 Y105.508 E19.46576
G1 X85.795 Y105.992 E19.49890
G1 X85.298 Y106.561 E19.53659
G1 X84.784 Y107.206 E19.57774
G1 X84.452 Y107.644 E19.60516
G1 X84.141 Y108.075 E19.63168
G1 X83.661 Y108.778 E19.67414
G1 X83.254 Y109.389 E19.71077
G1 X82.741 Y110.197 E19.75852
G1 X82.344 Y110.845 E19.79643
G1 X81.990 Y111.430 E19.83055
G1 X81.705 Y111.913 E19.85853
G1 X81.041 Y113.217 E19.93153
G1 X80.496 Y114.300 E19.99202
G1 X79.006 Y117.281 E20.15828
G1 X78.562 Y118.179 E20.20826
G1 X77.567 Y120.204 E20.32083
G1 X75.565 Y124.336 E20.54990
G1 X74.879 Y125.769 E20.62916
G1 X74.175 Y127.304 E20.71341
G1 X73.410 Y128.961 E20.80446
G1 X73.059 Y129.770 E20.84846
G1 X72.775 Y130.423 E20.88399
G1 X72.085 Y132.025 E20.97101
G1 X71.505 Y133.500 E21.05008
G1 X68.645 Y133.500 E21.19277
G1 X68.801 Y133.080 E21.21512
G1 X68.992 Y132.581 E21.24178
G1 X69.202 Y132.044 E21.27054
G1 X69.440 Y131.443 E21.30279
G1 X69.666 Y130.880 E21.33306
G1 X70.327 Y129.292 E21.41887
G1 X70.580 Y128.708 E21.45063
G1 X71.055 Y127.598 E21.51086
G1 X72.404 Y124.576 E21.67597
G1 X73.803 Y121.550 E21.84229
G1 X74.504 Y120.050 E21.92490
G1 X75.190 Y118.613 E22.00434
G1 X76.186 Y116.533 E22.11939
G1 X76.648 Y115.582 E22.17214
G1 X77.165 Y114.524 E22.23089
G1 X78.162 Y112.510 E22.34301
G1 X78.803 Y111.235 E22.41420
G1 X79.533 Y109.810 E22.49408
G1 X79.777 Y109.339 E22.52055
