;Generated with Cura_SteamEngine 15.01
; Default start code
G28 ; Home extruder
G1 Z15 F100
M107 ; Turn off fan
G90 ; Absolute positioning
M82 ; Extruder in absolute mode
M190 S50
; Activate all used extruder
M104 T0 S210
G92 E0 ; Reset extruder position
; Wait for all used extruders to reach temperature
M109 T0 S210
;Layer count: 178
;LAYER:0
M107
G0 F9000 X82.220 Y103.284 Z0.300
;TYPE:SKIRT
G1 F1800 X82.824 Y102.803 E0.03852
G1 X83.427 Y102.337 E0.07654
G1 X84.612 Y101.443 E0.15060
G1 X85.835 Y100.566 E0.22568
G1 X87.104 Y99.697 E0.30241
G1 X88.442 Y98.816 E0.38234
G1 X89.141 Y98.373 E0.42362
G1 X89.743 Y97.992 E0.45917
G1 X91.248 Y97.062 E0.54743
G1 X92.691 Y96.196 E0.63139
G1 X93.786 Y95.553 E0.69475
G1 X94.654 Y95.049 E0.74482
G1 X95.375 Y94.645 E0.78605
G1 X95.375 Y94.646 E0.78610
G1 X96.279 Y94.137 E0.83786
G1 X96.870 Y93.816 E0.87142
G1 X97.857 Y93.283 E0.92738
G1 X98.458 Y92.975 E0.96107
G1 X99.360 Y92.516 E1.01156
G1 X100.784 Y91.840 E1.09021
G1 X102.167 Y91.233 E1.16556
G1 X102.761 Y90.996 E1.19746
G1 X103.519 Y90.696 E1.23813
G1 X104.664 Y90.277 E1.29896
G1 X105.563 Y89.976 E1.34626
G1 X106.137 Y89.788 E1.37640
G1 X106.839 Y89.561 E1.41320
G1 X107.815 Y89.274 E1.46396
G1 X108.735 Y89.022 E1.51155
G1 X109.635 Y88.786 E1.55797
G1 X110.451 Y88.588 E1.59986
G1 X111.145 Y88.427 E1.63540
G1 X111.795 Y88.285 E1.66860
G1 X112.467 Y88.144 E1.70285
G1 X113.112 Y88.023 E1.73559
G1 X113.701 Y87.919 E1.76543
G1 X114.282 Y87.827 E1.79478
G1 X114.945 Y87.743 E1.82812
G1 X115.691 Y87.658 E1.86558
G1 X116.643 Y87.578 E1.91324
G1 X117.633 Y87.500 E1.96279
G1 X118.281 Y87.453 E1.99520
G1 X118.281 Y87.454 E1.99525
G1 X119.247 Y87.382 E2.04358
G1 X120.752 Y87.277 E2.11885
G1 X121.818 Y87.214 E2.17212
G1 X122.558 Y87.196 E2.20905
G1 X122.736 Y87.197 E2.21793
G1 X122.982 Y87.196 E2.23020
G1 X123.574 Y87.212 E2.25975
G1 X124.191 Y87.244 E2.29057
G1 X124.976 Y87.312 E2.32988
G1 X125.155 Y87.334 E2.33888
G1 X125.217 Y87.276 E2.34312
G1 X125.261 Y87.224 E2.34652
G1 X126.852 Y85.741 E2.45503
G1 X129.261 Y86.446 E2.58025
G1 X129.890 Y86.633 E2.61299
G1 X130.407 Y86.792 E2.63998
G1 X131.044 Y86.987 E2.67321
G1 X131.713 Y87.195 E2.70817
G1 X132.359 Y87.399 E2.74196
G1 X133.015 Y87.610 E2.77634
G1 X133.783 Y87.858 E2.81661
G1 X134.272 Y88.018 E2.84228
G1 X134.990 Y88.256 E2.88001
G1 X135.481 Y88.417 E2.90579
G1 X136.510 Y88.760 E2.95991
G1 X137.038 Y88.941 E2.98775
G1 X137.641 Y89.146 E3.01953
G1 X138.297 Y89.372 E3.05414
G1 X138.900 Y89.578 E3.08594
G1 X139.496 Y89.786 E3.11743
G1 X140.634 Y90.183 E3.17756
G1 X141.386 Y90.448 E3.21734
G1 X142.915 Y90.990 E3.29827
G1 X143.483 Y91.194 E3.32838
G1 X144.534 Y91.571 E3.38409
G1 X145.062 Y91.762 E3.41210
G1 X146.598 Y92.322 E3.49366
G1 X147.700 Y92.731 E3.55231
G1 X148.215 Y92.924 E3.57975
G1 X150.380 Y93.743 E3.69523
G1 X151.375 Y94.132 E3.74853
G1 X151.867 Y94.324 E3.77488
G1 X152.115 Y94.422 E3.78818
G1 X153.132 Y94.834 E3.84293
G1 X154.270 Y95.302 E3.90431
G1 X154.762 Y95.505 E3.93087
G1 X155.595 Y95.866 E3.97616
G1 X156.271 Y96.155 E4.01284
G1 X156.907 Y96.439 E4.04759
G1 X157.417 Y96.670 E4.07552
G1 X158.088 Y96.978 E4.11236
G1 X162.353 Y99.018 E4.34823
G1 X158.758 Y102.613 E4.60187
G1 X158.387 Y102.985 E4.62808
G1 X158.008 Y103.363 E4.65479
G1 X157.228 Y104.143 E4.70982
G1 X157.045 Y104.325 E4.72270
G1 X156.589 Y104.783 E4.75494
G1 X156.348 Y105.023 E4.77191
G1 X154.712 Y106.659 E4.88734
G1 X151.242 Y105.174 E5.07564
G1 X150.422 Y104.834 E5.11993
G1 X149.362 Y104.415 E5.17680
G1 X148.430 Y104.043 E5.22686
G1 X147.911 Y103.842 E5.25463
G1 X146.386 Y103.270 E5.33589
G1 X145.057 Y102.786 E5.40645
G1 X145.057 Y102.785 E5.40650
G1 X144.050 Y102.423 E5.45989
G1 X144.050 Y102.424 E5.45994
G1 X143.230 Y102.138 E5.50327
G1 X141.880 Y101.662 E5.57468
G1 X141.018 Y101.358 E5.62028
G1 X139.357 Y100.790 E5.70786
G1 X138.267 Y100.419 E5.76531
G1 X136.775 Y99.913 E5.84391
G1 X136.320 Y99.756 E5.86792
G1 X133.502 Y98.812 E6.01619
G1 X132.714 Y98.549 E6.05763
G1 X131.564 Y98.170 E6.11804
G1 X130.609 Y97.859 E6.16815
G1 X130.053 Y97.694 E6.19709
G1 X129.548 Y97.566 E6.22308
G1 X129.274 Y97.503 E6.23710
G1 X128.911 Y97.415 E6.25574
G1 X128.539 Y97.327 E6.27481
G1 X127.653 Y97.128 E6.32011
G1 X127.481 Y97.090 E6.32890
G1 X126.982 Y96.991 E6.35428
G1 X126.545 Y96.907 E6.37648
G1 X126.066 Y96.825 E6.40073
G1 X125.954 Y96.809 E6.40637
G1 X125.681 Y96.767 E6.42015
G1 X125.212 Y96.705 E6.44375
G1 X124.666 Y96.649 E6.47114
G1 X124.412 Y96.626 E6.48386
G1 X123.860 Y96.597 E6.51144
G1 X123.353 Y96.591 E6.53674
G1 X123.346 Y96.591 E6.53708
G1 X122.952 Y96.599 E6.55675
G1 X122.429 Y96.628 E6.58288
G1 X121.516 Y96.684 E6.62851
G1 X120.179 Y96.781 E6.69539
G1 X119.396 Y96.843 E6.73458
G1 X118.637 Y96.904 E6.77257
G1 X118.101 Y96.949 E6.79940
G1 X117.386 Y97.025 E6.83527
G1 X116.685 Y97.098 E6.87044
G1 X116.114 Y97.174 E6.89918
G1 X115.532 Y97.269 E6.92860
G1 X114.998 Y97.367 E6.95568
G1 X114.484 Y97.468 E6.98182
G1 X114.484 Y97.469 E6.98187
G1 X113.980 Y97.574 E7.00755
G1 X113.035 Y97.786 E7.05587
G1 X112.379 Y97.945 E7.08954
G1 X111.657 Y98.129 E7.12672
G1 X110.543 Y98.441 E7.18443
G1 X110.543 Y98.442 E7.18448
G1 X109.998 Y98.597 E7.21275
G1 X109.168 Y98.861 E7.25620
G1 X108.360 Y99.120 E7.29854
G1 X107.779 Y99.325 E7.32927
G1 X106.970 Y99.623 E7.37229
G1 X106.523 Y99.795 E7.39618
G1 X105.811 Y100.095 E7.43473
G1 X105.811 Y100.094 E7.43478
G1 X105.196 Y100.356 E7.46813
G1 X104.404 Y100.716 E7.51153
G1 X103.656 Y101.077 E7.55297
G1 X102.821 Y101.499 E7.59964
G1 X102.012 Y101.924 E7.64524
G1 X101.107 Y102.413 E7.69656
G1 X100.177 Y102.936 E7.74979
G1 X99.689 Y103.207 E7.77764
G1 X98.849 Y103.700 E7.82623
G1 X97.940 Y104.232 E7.87877
G1 X97.330 Y104.596 E7.91421
G1 X96.832 Y104.893 E7.94314
G1 X96.395 Y105.160 E7.96869
G1 X95.862 Y105.486 E7.99986
G1 X94.986 Y106.033 E8.05139
G1 X94.140 Y106.569 E8.10135
G1 X93.434 Y107.023 E8.14323
G1 X92.975 Y107.321 E8.17053
G1 X92.264 Y107.799 E8.21327
G1 X91.601 Y108.253 E8.25336
G1 X90.907 Y108.743 E8.29575
G1 X90.237 Y109.226 E8.33695
G1 X89.616 Y109.692 E8.37569
G1 X88.924 Y110.219 E8.41908
G1 X88.301 Y110.713 E8.45875
G1 X87.542 Y111.325 E8.50739
G1 X87.099 Y111.691 E8.53606
G1 X86.479 Y112.214 E8.57653
G1 X85.912 Y112.698 E8.61372
G1 X85.333 Y113.200 E8.65195
G1 X84.712 Y113.746 E8.69321
G1 X84.171 Y114.226 E8.72929
G1 X84.170 Y114.225 E8.72936
G1 X83.799 Y114.558 E8.75423
G1 X83.271 Y115.031 E8.78960
G1 X82.916 Y115.356 E8.81361
G1 X82.470 Y115.764 E8.84377
G1 X82.106 Y116.100 E8.86848
G1 X81.514 Y116.647 E8.90870
G1 X79.929 Y118.136 E9.01719
G1 X79.392 Y118.647 E9.05417
G1 X79.023 Y119.006 E9.07986
G1 X78.639 Y119.375 E9.10643
G1 X78.272 Y119.733 E9.13201
G1 X77.792 Y120.196 E9.16528
G1 X77.325 Y120.650 E9.19777
G1 X76.793 Y121.172 E9.23496
G1 X76.404 Y121.548 E9.26195
G1 X76.014 Y121.931 E9.28922
G1 X75.522 Y122.413 E9.32358
G1 X74.855 Y123.068 E9.37022
G1 X74.492 Y123.422 E9.39552
G1 X73.691 Y124.203 E9.45133
G1 X73.238 Y124.644 E9.48287
G1 X72.799 Y125.078 E9.51367
G1 X72.322 Y125.541 E9.54683
G1 X71.884 Y125.975 E9.57760
G1 X71.442 Y126.407 E9.60843
G1 X71.052 Y126.793 E9.63581
G1 X70.552 Y127.281 E9.67066
G1 X70.133 Y127.693 E9.69998
G1 X69.706 Y128.111 E9.72979
G1 X69.306 Y128.510 E9.75798
G1 X68.882 Y128.931 E9.78779
G1 X68.525 Y129.284 E9.81284
G1 X68.074 Y129.736 E9.84469
G1 X67.823 Y129.987 E9.86240
G1 X67.803 Y130.006 E9.86378
G1 X65.378 Y132.417 E10.03438
G1 X61.728 Y128.767 E10.29191
G1 X61.139 Y128.179 E10.33343
G1 X58.604 Y125.634 E10.51264
G1 X61.227 Y123.011 E10.69771
G1 X61.633 Y122.607 E10.72628
G1 X61.981 Y122.264 E10.75066
G1 X62.024 Y122.219 E10.75377
G1 X62.460 Y121.793 E10.78418
G1 X62.461 Y121.794 E10.78425
G1 X62.843 Y121.416 E10.81106
G1 X63.245 Y121.020 E10.83921
G1 X63.246 Y121.021 E10.83928
G1 X63.651 Y120.620 E10.86772
G1 X64.069 Y120.215 E10.89675
G1 X64.888 Y119.419 E10.95373
G1 X65.290 Y119.026 E10.98178
G1 X65.759 Y118.568 E11.01449
G1 X66.382 Y117.970 E11.05757
G1 X66.908 Y117.459 E11.09416
G1 X67.330 Y117.050 E11.12348
G1 X67.732 Y116.658 E11.15149
G1 X68.106 Y116.293 E11.17756
G1 X68.594 Y115.817 E11.21157
G1 X69.120 Y115.306 E11.24816
G1 X69.614 Y114.820 E11.28273
G1 X69.985 Y114.457 E11.30863
G1 X70.351 Y114.100 E11.33413
G1 X70.738 Y113.722 E11.36112
G1 X71.634 Y112.849 E11.42353
G1 X72.126 Y112.368 E11.45786
G1 X72.604 Y111.908 E11.49096
G1 X73.471 Y111.072 E11.55105
G1 X73.912 Y110.654 E11.58136
G1 X74.393 Y110.198 E11.61443
G1 X74.921 Y109.704 E11.65050
G1 X75.448 Y109.214 E11.68640
G1 X75.936 Y108.760 E11.71966
G1 X76.479 Y108.262 E11.75641
G1 X76.924 Y107.857 E11.78643
G1 X77.477 Y107.355 E11.82369
G1 X77.888 Y106.984 E11.85132
G1 X78.472 Y106.466 E11.89026
G1 X78.966 Y106.028 E11.92320
G1 X79.444 Y105.614 E11.95475
G1 X79.896 Y105.222 E11.98460
G1 X80.386 Y104.806 E12.01667
G1 X80.385 Y104.805 E12.01674
G1 X80.803 Y104.449 E12.04413
G1 X81.327 Y104.015 E12.07808
G1 X82.220 Y103.284 E12.13565
G1 F2400 E8.13565
G0 F9000 X84.604 Y106.243
;TYPE:WALL-INNER
G1 F2400 E12.13565
G1 F1800 X85.167 Y105.795 E12.17155
G1 X85.736 Y105.355 E12.20743
G1 X86.858 Y104.509 E12.27754
G1 X88.021 Y103.675 E12.34894
G1 X89.218 Y102.855 E12.42132
G1 X90.500 Y102.011 E12.49790
G1 X91.756 Y101.215 E12.57209
G1 X93.221 Y100.310 E12.65800
G1 X94.633 Y99.463 E12.74014
G1 X95.701 Y98.835 E12.80196
G1 X96.531 Y98.353 E12.84984
G1 X97.229 Y97.962 E12.88976
G1 X98.121 Y97.461 E12.94080
G1 X98.679 Y97.158 E12.97247
G1 X99.621 Y96.649 E13.02589
G1 X100.185 Y96.360 E13.05751
G1 X101.044 Y95.923 E13.10559
G1 X102.371 Y95.293 E13.17888
G1 X103.633 Y94.739 E13.24764
G1 X104.881 Y94.243 E13.31464
G1 X105.912 Y93.866 E13.36941
G1 X106.755 Y93.584 E13.41376
G1 X107.312 Y93.402 E13.44299
G1 X107.957 Y93.193 E13.47682
G1 X108.848 Y92.932 E13.52314
G1 X109.723 Y92.692 E13.56840
G1 X110.559 Y92.472 E13.61153
G1 X111.331 Y92.285 E13.65116
G1 X111.977 Y92.135 E13.68425
G1 X112.588 Y92.001 E13.71545
G1 X113.202 Y91.873 E13.74675
G1 X113.797 Y91.761 E13.77695
G1 X114.324 Y91.668 E13.80365
G1 X114.828 Y91.588 E13.82911
G1 X115.394 Y91.516 E13.85758
G1 X116.057 Y91.441 E13.89086
G1 X116.954 Y91.365 E13.93578
G1 X117.920 Y91.289 E13.98412
G1 X119.518 Y91.172 E14.06406
G1 X120.999 Y91.069 E14.13812
G1 X121.971 Y91.012 E14.18670
G1 X122.598 Y90.996 E14.21799
G1 X122.729 Y90.997 E14.22453
G1 X122.931 Y90.996 E14.23460
G1 X123.920 Y91.035 E14.28398
G1 X124.575 Y91.091 E14.31678
G1 X125.154 Y91.162 E14.34588
G1 X125.782 Y91.255 E14.37756
G1 X126.445 Y91.363 E14.41107
G1 X127.190 Y90.641 E14.46283
G1 X127.868 Y89.998 E14.50945
G1 X128.188 Y90.092 E14.52609
G1 X128.788 Y90.269 E14.55730
G1 X129.922 Y90.618 E14.61649
G1 X130.576 Y90.821 E14.65065
G1 X131.203 Y91.019 E14.68346
G1 X132.607 Y91.471 E14.75704
G1 X133.081 Y91.626 E14.78192
G1 X133.803 Y91.866 E14.81988
G1 X134.285 Y92.024 E14.84519
G1 X135.291 Y92.360 E14.89810
G1 X135.814 Y92.539 E14.92568
G1 X136.412 Y92.742 E14.95719
G1 X137.069 Y92.969 E14.99187
G1 X137.662 Y93.171 E15.02312
G1 X139.377 Y93.769 E15.11374
G1 X140.121 Y94.031 E15.15309
G1 X141.635 Y94.568 E15.23323
G1 X143.767 Y95.335 E15.34627
G1 X145.288 Y95.889 E15.42703
G1 X146.373 Y96.292 E15.48478
G1 X146.879 Y96.481 E15.51172
G1 X149.011 Y97.287 E15.62544
G1 X150.710 Y97.953 E15.71648
G1 X151.695 Y98.352 E15.76950
G1 X152.822 Y98.815 E15.83029
G1 X153.275 Y99.002 E15.85474
G1 X154.103 Y99.361 E15.89976
G1 X154.745 Y99.635 E15.93459
G1 X155.346 Y99.904 E15.96744
G1 X155.843 Y100.129 E15.99466
G1 X155.861 Y100.137 E15.99564
G1 X154.544 Y101.454 E16.08856
G1 X153.902 Y102.095 E16.13382
G1 X153.844 Y102.154 E16.13795
G1 X152.701 Y101.665 E16.19997
G1 X151.861 Y101.317 E16.24533
G1 X150.764 Y100.883 E16.30419
G1 X149.806 Y100.501 E16.35565
G1 X149.281 Y100.297 E16.38375
G1 X147.689 Y99.700 E16.46857
G1 X146.356 Y99.215 E16.53934
G1 X145.303 Y98.836 E16.59517
G1 X144.485 Y98.551 E16.63839
G1 X142.283 Y97.774 E16.75489
G1 X139.487 Y96.820 E16.90228
G1 X138.003 Y96.317 E16.98045
G1 X137.530 Y96.154 E17.00541
G1 X133.905 Y94.941 E17.19612
G1 X132.753 Y94.561 E17.25664
G1 X131.710 Y94.222 E17.31135
G1 X131.075 Y94.033 E17.34441
G1 X130.433 Y93.871 E17.37744
G1 X129.788 Y93.717 E17.41053
G1 X128.477 Y93.418 E17.47761
G1 X127.719 Y93.263 E17.51621
G1 X127.203 Y93.164 E17.54242
G1 X126.666 Y93.072 E17.56960
G1 X125.650 Y92.930 E17.62079
G1 X125.045 Y92.868 E17.65113
G1 X123.985 Y92.798 E17.70413
G1 X123.427 Y92.791 E17.73197
G1 X123.372 Y92.790 E17.73471
G1 X122.797 Y92.801 E17.76340
G1 X122.215 Y92.834 E17.79249
G1 X121.245 Y92.893 E17.84097
G1 X119.903 Y92.991 E17.90810
G1 X118.332 Y93.116 E17.98673
G1 X117.725 Y93.167 E18.01712
G1 X116.985 Y93.246 E18.05424
G1 X116.246 Y93.323 E18.09131
G1 X115.544 Y93.416 E18.12664
G1 X114.889 Y93.524 E18.15976
G1 X114.311 Y93.630 E18.18908
G1 X113.712 Y93.748 E18.21954
G1 X113.200 Y93.855 E18.24563
G1 X112.145 Y94.092 E18.29958
G1 X111.443 Y94.262 E18.33561
G1 X110.704 Y94.450 E18.37366
G1 X109.504 Y94.787 E18.43584
G1 X108.893 Y94.960 E18.46752
G1 X108.015 Y95.239 E18.51348
G1 X107.137 Y95.521 E18.55949
G1 X106.510 Y95.743 E18.59268
G1 X105.611 Y96.074 E18.64047
G1 X105.096 Y96.272 E18.66800
G1 X104.334 Y96.593 E18.70925
G1 X103.648 Y96.885 E18.74645
G1 X102.793 Y97.274 E18.79331
G1 X101.963 Y97.675 E18.83930
G1 X101.104 Y98.109 E18.88731
G1 X100.208 Y98.579 E18.93779
G1 X99.277 Y99.082 E18.99058
G1 X98.324 Y99.618 E19.04513
G1 X97.818 Y99.899 E19.07401
G1 X95.992 Y100.969 E19.17960
G1 X94.856 Y101.647 E19.24560
G1 X93.877 Y102.245 E19.30283
G1 X92.954 Y102.822 E19.35714
G1 X92.104 Y103.360 E19.40733
G1 X91.365 Y103.835 E19.45115
G1 X90.901 Y104.136 E19.47875
G1 X90.141 Y104.647 E19.52444
G1 X89.412 Y105.146 E19.56851
G1 X88.713 Y105.641 E19.61124
G1 X88.011 Y106.146 E19.65439
G1 X87.315 Y106.667 E19.69776
G1 X86.617 Y107.199 E19.74155
G1 X85.917 Y107.753 E19.78608
G1 X85.154 Y108.369 E19.83501
G1 X84.677 Y108.763 E19.86587
G1 X84.013 Y109.322 E19.90918
G1 X83.443 Y109.809 E19.94658
G1 X82.841 Y110.331 E19.98633
G1 X82.191 Y110.902 E20.02950
G1 X81.648 Y111.384 E20.06572
G1 X80.735 Y112.200 E20.12681
G1 X79.904 Y112.961 E20.18303
G1 X78.933 Y113.858 E20.24898
G1 X77.326 Y115.368 E20.35899
G1 X76.771 Y115.895 E20.39718
G1 X76.383 Y116.273 E20.42420
G1 X75.988 Y116.653 E20.45155
G1 X75.625 Y117.006 E20.47681
G1 X75.154 Y117.461 E20.50948
G1 X74.675 Y117.927 E20.54282
G1 X74.145 Y118.448 E20.57990
G1 X73.762 Y118.816 E20.60640
G1 X72.198 Y120.351 E20.71573
G1 X71.837 Y120.702 E20.74085
G1 X70.585 Y121.923 E20.82810
G1 X70.142 Y122.361 E20.85918
G1 X69.674 Y122.815 E20.89171
G1 X69.218 Y123.266 E20.92370
G1 X68.770 Y123.704 E20.95496
G1 X68.390 Y124.081 E20.98167
G1 X67.897 Y124.562 E21.01603
G1 X67.472 Y124.982 E21.04584
G1 X67.046 Y125.397 E21.07551
G1 X66.626 Y125.816 E21.10511
G1 X66.208 Y126.231 E21.13450
G1 X65.834 Y126.601 E21.16074
G1 X65.385 Y127.051 E21.19246
G1 X63.973 Y125.639 E21.29208
G1 X64.706 Y124.912 E21.34359
G1 X65.114 Y124.513 E21.37206
G1 X65.509 Y124.124 E21.39972
G1 X65.909 Y123.730 E21.42773
G1 X66.310 Y123.335 E21.45581
G1 X67.127 Y122.543 E21.51258
G1 X67.547 Y122.134 E21.54183
G1 X67.947 Y121.743 E21.56973
G1 X68.400 Y121.299 E21.60138
G1 X69.029 Y120.697 E21.64482
G1 X69.982 Y119.771 E21.71111
G1 X71.246 Y118.539 E21.79917
G1 X71.769 Y118.030 E21.83558
G1 X72.640 Y117.174 E21.89651
G1 X74.773 Y115.095 E22.04511
G1 X76.096 Y113.820 E22.13678
G1 X76.997 Y112.966 E22.19871
G1 X77.514 Y112.482 E22.23404
G1 X78.514 Y111.552 E22.30217
G1 X79.041 Y111.068 E22.33787
G1 X80.029 Y110.171 E22.40445
G1 X80.420 Y109.817 E22.43076
G1 X81.468 Y108.888 E22.50063
