;Generated with Cura_SteamEngine 15.01
; Default start code
G28 ; Home extruder
G1 Z15 F100
M107 ; Turn off fan
G90 ; Absolute positioning
M82 ; Extruder in absolute mode
M190 S50
; Activate all used extruder
M104 T0 S210
G92 E0 ; Reset extruder position
; Wait for all used extruders to reach temperature
M109 T0 S210
;Layer count: 341
;LAYER:0
M107
G0 F9000 X71.135 Y106.458 Z0.300
;TYPE:SKIRT
G1 F1800 X73.903 Y105.495 E0.14621
G1 X74.578 Y105.264 E0.18181
G1 X75.465 Y104.976 E0.22833
G1 X76.085 Y104.781 E0.26076
G1 X76.612 Y104.620 E0.28825
G1 X77.189 Y104.455 E0.31819
G1 X77.701 Y104.311 E0.34473
G1 X78.378 Y104.129 E0.37970
G1 X79.065 Y103.955 E0.41506
G1 X79.589 Y103.819 E0.44207
G1 X80.240 Y103.658 E0.47553
G1 X80.635 Y103.562 E0.49581
G1 X80.880 Y103.503 E0.50838
G1 X81.465 Y103.362 E0.53840
G1 X81.608 Y103.328 E0.54573
G1 X81.773 Y103.288 E0.55420
G1 X82.284 Y103.167 E0.58040
G1 X82.751 Y103.054 E0.60437
G1 X83.234 Y102.940 E0.62913
G1 X83.943 Y102.773 E0.66547
G1 X84.529 Y102.634 E0.69552
G1 X85.212 Y102.477 E0.73048
G1 X85.914 Y102.315 E0.76643
G1 X88.089 Y101.833 E0.87757
G1 X89.595 Y101.517 E0.95434
G1 X89.829 Y101.470 E0.96625
G1 X90.233 Y101.389 E0.98680
G1 X90.389 Y101.358 E0.99474
G1 X90.481 Y99.848 E1.07021
G1 X93.974 Y99.676 E1.24469
G1 X94.954 Y99.629 E1.29364
G1 X95.804 Y99.590 E1.33609
G1 X96.453 Y99.561 E1.36850
G1 X96.992 Y99.538 E1.39542
G1 X97.534 Y99.516 E1.42248
G1 X98.592 Y99.474 E1.47531
G1 X98.592 Y99.475 E1.47536
G1 X99.184 Y99.450 E1.50492
G1 X99.774 Y99.424 E1.53438
G1 X100.279 Y99.401 E1.55960
G1 X101.238 Y99.357 E1.60750
G1 X101.820 Y99.330 E1.63656
G1 X101.820 Y99.331 E1.63661
G1 X102.492 Y99.298 E1.67018
G1 X103.088 Y99.268 E1.69995
G1 X103.443 Y99.250 E1.71769
G1 X104.075 Y99.215 E1.74927
G1 X104.371 Y99.198 E1.76406
G1 X104.678 Y99.178 E1.77941
G1 X105.383 Y99.137 E1.81464
G1 X106.040 Y99.095 E1.84748
G1 X106.040 Y99.094 E1.84753
G1 X107.045 Y99.021 E1.89780
G1 X107.045 Y99.022 E1.89785
G1 X107.593 Y98.981 E1.92527
G1 X108.436 Y98.912 E1.96747
G1 X109.477 Y98.826 E2.01958
G1 X110.329 Y98.742 E2.06229
G1 X110.329 Y98.741 E2.06234
G1 X110.978 Y98.675 E2.09489
G1 X110.978 Y98.676 E2.09494
G1 X111.515 Y98.618 E2.12189
G1 X112.407 Y98.522 E2.16665
G1 X113.176 Y98.427 E2.20530
G1 X113.755 Y98.354 E2.23442
G1 X113.755 Y98.353 E2.23447
G1 X114.407 Y98.269 E2.26726
G1 X114.407 Y98.270 E2.26731
G1 X115.084 Y98.180 E2.30139
G1 X115.294 Y98.151 E2.31196
G1 X115.403 Y98.136 E2.31745
G1 X115.958 Y98.058 E2.34541
G1 X115.958 Y98.059 E2.34546
G1 X116.397 Y97.995 E2.36760
G1 X116.987 Y97.914 E2.39731
G1 X117.068 Y97.903 E2.40139
G1 X117.883 Y97.788 E2.44245
G1 X118.563 Y97.698 E2.47667
G1 X119.733 Y97.539 E2.53558
G1 X121.903 Y97.288 E2.64456
G1 X122.860 Y97.200 E2.69251
G1 X124.136 Y97.091 E2.75640
G1 X124.930 Y97.040 E2.79610
G1 X125.605 Y96.996 E2.82984
G1 X126.917 Y96.922 E2.89540
G1 X128.018 Y96.874 E2.95038
G1 X128.896 Y96.835 E2.99423
G1 X129.648 Y96.808 E3.03177
G1 X130.763 Y96.771 E3.08743
G1 X131.784 Y96.740 E3.13839
G1 X132.774 Y96.712 E3.18780
G1 X133.794 Y96.687 E3.23871
G1 X134.340 Y96.675 E3.26595
G1 X134.890 Y96.662 E3.29340
G1 X135.903 Y96.644 E3.34395
G1 X135.903 Y96.645 E3.34400
G1 X136.633 Y96.631 E3.38042
G1 X136.866 Y96.627 E3.39205
G1 X136.919 Y96.614 E3.39477
G1 X138.247 Y96.317 E3.46266
G1 X139.333 Y96.082 E3.51810
G1 X140.287 Y95.885 E3.56670
G1 X141.720 Y95.597 E3.63962
G1 X142.720 Y95.407 E3.69040
G1 X143.638 Y95.239 E3.73696
G1 X144.570 Y95.076 E3.78417
G1 X145.140 Y94.982 E3.81299
G1 X148.864 Y94.430 E4.00081
G1 X148.864 Y104.763 E4.51632
G1 X145.516 Y105.447 E4.68681
G1 X144.982 Y105.546 E4.71390
G1 X144.126 Y105.708 E4.75737
G1 X143.378 Y105.839 E4.79525
G1 X143.378 Y105.838 E4.79530
G1 X142.528 Y105.993 E4.83841
G1 X141.845 Y106.119 E4.87306
G1 X141.061 Y106.267 E4.91286
G1 X140.248 Y106.306 E4.95347
G1 X139.664 Y106.339 E4.98265
G1 X138.999 Y106.376 E5.01588
G1 X138.295 Y106.420 E5.05107
G1 X138.295 Y106.419 E5.05112
G1 X137.636 Y106.462 E5.08407
G1 X136.399 Y106.547 E5.14593
G1 X136.399 Y106.548 E5.14598
G1 X135.814 Y106.590 E5.17524
G1 X135.271 Y106.631 E5.20241
G1 X133.553 Y106.765 E5.28838
G1 X131.918 Y106.908 E5.37026
G1 X130.353 Y107.053 E5.44867
G1 X129.674 Y107.118 E5.48270
G1 X128.835 Y107.199 E5.52476
G1 X128.835 Y107.198 E5.52481
G1 X127.841 Y107.303 E5.57467
G1 X126.560 Y107.446 E5.63898
G1 X125.686 Y107.557 E5.68293
G1 X125.686 Y107.556 E5.68298
G1 X124.215 Y107.748 E5.75699
G1 X123.333 Y107.877 E5.80147
G1 X122.722 Y107.971 E5.83231
G1 X121.927 Y108.095 E5.87245
G1 X121.927 Y108.094 E5.87250
G1 X121.345 Y108.188 E5.90191
G1 X120.817 Y108.274 E5.92860
G1 X120.053 Y108.408 E5.96730
G1 X119.286 Y108.532 E6.00606
G1 X117.611 Y108.813 E6.09079
G1 X117.227 Y108.874 E6.11019
G1 X116.671 Y108.962 E6.13828
G1 X116.438 Y109.000 E6.15006
G1 X115.907 Y109.079 E6.17684
G1 X115.336 Y109.162 E6.20563
G1 X114.730 Y109.246 E6.23615
G1 X114.035 Y109.341 E6.27114
G1 X113.171 Y109.445 E6.31456
G1 X111.982 Y109.579 E6.37426
G1 X111.433 Y109.630 E6.40176
G1 X109.809 Y109.770 E6.48308
G1 X107.389 Y109.916 E6.60404
G1 X106.745 Y109.941 E6.63619
G1 X105.092 Y110.000 E6.71871
G1 X104.361 Y110.018 E6.75519
G1 X103.795 Y110.028 E6.78344
G1 X103.011 Y110.042 E6.82256
G1 X102.300 Y110.040 E6.85803
G1 X101.360 Y110.055 E6.90493
G1 X100.395 Y110.053 E6.95308
G1 X100.038 Y110.051 E6.97089
G1 X99.977 Y110.053 E6.97393
G1 X99.829 Y110.052 E6.98132
G1 X99.378 Y110.082 E7.00387
G1 X98.626 Y110.145 E7.04151
G1 X98.043 Y110.190 E7.07069
G1 X97.520 Y110.240 E7.09690
G1 X96.707 Y110.326 E7.13769
G1 X96.179 Y110.385 E7.16419
G1 X95.724 Y110.442 E7.18707
G1 X95.196 Y110.515 E7.21366
G1 X94.713 Y110.585 E7.23801
G1 X93.964 Y110.702 E7.27583
G1 X93.964 Y110.701 E7.27588
G1 X93.305 Y110.811 E7.30921
G1 X92.585 Y110.941 E7.34572
G1 X91.954 Y111.062 E7.37777
G1 X91.164 Y111.223 E7.41799
G1 X90.544 Y111.355 E7.44962
G1 X89.806 Y111.519 E7.48734
G1 X89.153 Y111.670 E7.52077
G1 X87.841 Y111.995 E7.58821
G1 X87.015 Y112.200 E7.63067
G1 X86.564 Y112.315 E7.65389
G1 X85.263 Y112.662 E7.72106
G1 X84.588 Y112.844 E7.75594
G1 X83.968 Y113.017 E7.78806
G1 X82.614 Y113.406 E7.85834
G1 X82.105 Y113.555 E7.88480
G1 X81.304 Y113.803 E7.92663
G1 X80.729 Y113.985 E7.95672
G1 X80.006 Y114.216 E7.99459
G1 X80.006 Y114.217 E7.99464
G1 X79.195 Y114.478 E8.03714
G1 X77.908 Y114.934 E8.10526
G1 X76.991 Y115.258 E8.15379
G1 X76.539 Y115.424 E8.17781
G1 X71.135 Y117.549 E8.46751
G1 X71.135 Y106.458 E9.02084
G1 F2400 E5.02084
G0 F9000 X75.775 Y108.871
;TYPE:WALL-INNER
G1 F2400 E9.02084
G1 F1800 X76.626 Y108.595 E9.06548
G1 X77.208 Y108.411 E9.09593
G1 X78.225 Y108.111 E9.14883
G1 X78.712 Y107.974 E9.17407
G1 X79.333 Y107.806 E9.20616
G1 X80.019 Y107.633 E9.24146
G1 X80.517 Y107.504 E9.26713
G1 X81.526 Y107.256 E9.31896
G1 X82.345 Y107.058 E9.36100
G1 X83.163 Y106.864 E9.40294
G1 X85.389 Y106.336 E9.51708
G1 X86.751 Y106.022 E9.58681
G1 X88.894 Y105.547 E9.69632
G1 X90.355 Y105.240 E9.77080
G1 X91.669 Y104.976 E9.83767
G1 X92.357 Y104.845 E9.87261
G1 X94.001 Y104.545 E9.95598
G1 X94.054 Y103.803 E9.99310
G1 X94.051 Y103.776 E9.99445
G1 X94.068 Y103.551 E10.00571
G1 X94.066 Y103.533 E10.00661
G1 X94.069 Y103.475 E10.00951
G1 X95.978 Y103.386 E10.10485
G1 X96.621 Y103.357 E10.13697
G1 X97.153 Y103.334 E10.16353
G1 X97.685 Y103.312 E10.19010
G1 X98.740 Y103.272 E10.24277
G1 X99.349 Y103.246 E10.27318
G1 X99.946 Y103.220 E10.30299
G1 X101.996 Y103.126 E10.40537
G1 X102.681 Y103.093 E10.43959
G1 X103.637 Y103.045 E10.48734
G1 X104.287 Y103.009 E10.51982
G1 X104.910 Y102.971 E10.55096
G1 X105.604 Y102.931 E10.58564
G1 X106.313 Y102.885 E10.62109
G1 X107.876 Y102.770 E10.69928
G1 X109.809 Y102.612 E10.79604
G1 X110.713 Y102.522 E10.84136
G1 X111.364 Y102.456 E10.87401
G1 X112.837 Y102.298 E10.94792
G1 X113.644 Y102.198 E10.98849
G1 X114.893 Y102.038 E11.05131
G1 X115.600 Y101.945 E11.08688
G1 X116.483 Y101.822 E11.13136
G1 X116.929 Y101.758 E11.15384
G1 X117.523 Y101.676 E11.18376
G1 X118.393 Y101.554 E11.22759
G1 X119.062 Y101.466 E11.26125
G1 X120.202 Y101.310 E11.31866
G1 X122.286 Y101.069 E11.42332
G1 X123.196 Y100.986 E11.46891
G1 X124.417 Y100.881 E11.53005
G1 X125.171 Y100.833 E11.56774
G1 X125.839 Y100.789 E11.60114
G1 X127.110 Y100.717 E11.66465
G1 X128.190 Y100.670 E11.71859
G1 X129.046 Y100.631 E11.76134
G1 X129.779 Y100.606 E11.79793
G1 X130.884 Y100.569 E11.85309
G1 X132.877 Y100.511 E11.95256
G1 X133.884 Y100.486 E12.00281
G1 X134.431 Y100.474 E12.03011
G1 X134.970 Y100.461 E12.05701
G1 X135.968 Y100.444 E12.10681
G1 X137.338 Y100.419 E12.17517
G1 X139.062 Y100.028 E12.26336
G1 X140.115 Y99.800 E12.31712
G1 X141.046 Y99.609 E12.36453
G1 X142.452 Y99.326 E12.43608
G1 X143.415 Y99.143 E12.48499
G1 X144.305 Y98.980 E12.53013
G1 X145.064 Y98.847 E12.56857
G1 X145.064 Y101.661 E12.70896
G1 X144.274 Y101.812 E12.74909
G1 X143.450 Y101.969 E12.79094
G1 X142.724 Y102.095 E12.82770
G1 X141.840 Y102.256 E12.87253
G1 X141.143 Y102.384 E12.90788
G1 X140.610 Y102.484 E12.93494
G1 X140.035 Y102.512 E12.96366
G1 X138.763 Y102.583 E13.02722
G1 X138.057 Y102.627 E13.06251
G1 X137.390 Y102.670 E13.09586
G1 X136.128 Y102.757 E13.15897
G1 X135.541 Y102.800 E13.18833
G1 X134.984 Y102.842 E13.21620
G1 X133.225 Y102.979 E13.30422
G1 X131.585 Y103.122 E13.38635
G1 X130.001 Y103.270 E13.46572
G1 X128.471 Y103.416 E13.54240
G1 X127.422 Y103.526 E13.59502
G1 X126.086 Y103.675 E13.66209
G1 X125.207 Y103.787 E13.70630
G1 X123.701 Y103.983 E13.78206
G1 X122.757 Y104.121 E13.82966
G1 X122.143 Y104.215 E13.86065
G1 X121.340 Y104.340 E13.90120
G1 X120.741 Y104.437 E13.93147
G1 X120.178 Y104.528 E13.95992
G1 X119.419 Y104.661 E13.99837
G1 X118.658 Y104.784 E14.03682
G1 X116.994 Y105.063 E14.12100
G1 X116.632 Y105.122 E14.13930
G1 X116.078 Y105.209 E14.16728
G1 X115.355 Y105.320 E14.20377
G1 X114.799 Y105.400 E14.23180
G1 X114.212 Y105.482 E14.26136
G1 X113.555 Y105.572 E14.29445
G1 X112.728 Y105.671 E14.33600
G1 X111.588 Y105.800 E14.39324
G1 X111.097 Y105.846 E14.41784
G1 X109.528 Y105.980 E14.49641
G1 X107.208 Y106.120 E14.61236
G1 X106.604 Y106.143 E14.64252
G1 X104.973 Y106.201 E14.72394
G1 X104.276 Y106.219 E14.75873
G1 X102.979 Y106.242 E14.82344
G1 X102.253 Y106.240 E14.85966
G1 X101.328 Y106.255 E14.90582
G1 X100.414 Y106.253 E14.95142
G1 X99.974 Y106.250 E14.97337
G1 X99.912 Y106.253 E14.97647
G1 X99.711 Y106.252 E14.98649
G1 X99.096 Y106.293 E15.01725
G1 X98.321 Y106.357 E15.05604
G1 X97.746 Y106.401 E15.08481
G1 X97.123 Y106.461 E15.11604
G1 X96.305 Y106.548 E15.15708
G1 X95.754 Y106.609 E15.18474
G1 X95.208 Y106.677 E15.21219
G1 X94.674 Y106.751 E15.23908
G1 X94.130 Y106.830 E15.26651
G1 X93.374 Y106.948 E15.30468
G1 X92.647 Y107.069 E15.34145
G1 X91.874 Y107.208 E15.38063
G1 X91.199 Y107.337 E15.41492
G1 X90.403 Y107.500 E15.45546
G1 X89.749 Y107.639 E15.48881
G1 X88.952 Y107.816 E15.52954
G1 X88.292 Y107.968 E15.56333
G1 X86.098 Y108.512 E15.67611
G1 X85.588 Y108.642 E15.70236
G1 X84.275 Y108.992 E15.77016
G1 X83.596 Y109.175 E15.80524
G1 X82.922 Y109.364 E15.84017
G1 X81.564 Y109.754 E15.91065
G1 X81.007 Y109.916 E15.93959
G1 X80.178 Y110.173 E15.98290
G1 X79.581 Y110.362 E16.01414
G1 X78.007 Y110.867 E16.09661
G1 X75.687 Y111.689 E16.21940
G1 X75.205 Y111.865 E16.24500
G1 X74.935 Y111.971 E16.25947
G1 X74.935 Y109.160 E16.39972
G1 X75.775 Y108.871 E16.44403
G0 F9000 X75.652 Y108.490
;TYPE:WALL-OUTER
G1 F1800 X76.501 Y108.215 E16.48856
G1 X77.093 Y108.028 E16.51953
G1 X77.574 Y107.881 E16.54462
G1 X78.117 Y107.725 E16.57281
G1 X78.604 Y107.589 E16.59804
G1 X79.235 Y107.419 E16.63064
G1 X79.920 Y107.246 E16.66589
G1 X80.424 Y107.115 E16.69187
G1 X81.433 Y106.867 E16.74370
G1 X82.250 Y106.670 E16.78563
G1 X84.017 Y106.248 E16.87627
G1 X85.301 Y105.946 E16.94208
G1 X86.666 Y105.631 E17.01197
G1 X88.805 Y105.156 E17.12128
G1 X90.278 Y104.848 E17.19636
G1 X91.590 Y104.584 E17.26313
G1 X92.698 Y104.370 E17.31943
G1 X93.624 Y104.206 E17.36634
G1 X93.653 Y103.809 E17.38620
G1 X93.651 Y103.792 E17.38706
G1 X93.652 Y103.722 E17.39055
G1 X93.666 Y103.551 E17.39911
G1 X93.665 Y103.541 E17.39961
G1 X93.689 Y103.095 E17.42189
G1 X96.604 Y102.958 E17.56748
G1 X101.977 Y102.727 E17.83579
G1 X103.615 Y102.646 E17.91761
G1 X104.588 Y102.591 E17.96623
G1 X105.579 Y102.532 E18.01576
G1 X106.286 Y102.486 E18.05111
G1 X107.845 Y102.371 E18.12910
G1 X109.773 Y102.213 E18.22561
G1 X111.322 Y102.058 E18.30327
G1 X112.791 Y101.901 E18.37698
G1 X114.189 Y101.725 E18.44728
G1 X115.546 Y101.548 E18.51555
G1 X116.427 Y101.426 E18.55992
G1 X117.468 Y101.280 E18.61237
G1 X118.343 Y101.157 E18.65645
G1 X120.156 Y100.912 E18.74772
G1 X122.255 Y100.670 E18.85314
G1 X123.160 Y100.587 E18.89848
G1 X124.387 Y100.481 E18.95992
G1 X125.813 Y100.390 E19.03121
G1 X127.087 Y100.318 E19.09487
G1 X129.034 Y100.232 E19.19210
G1 X130.871 Y100.169 E19.28380
G1 X133.875 Y100.086 E19.43373
G1 X137.288 Y100.019 E19.60404
G1 X138.979 Y99.637 E19.69053
G1 X140.034 Y99.408 E19.74439
G1 X140.965 Y99.217 E19.79180
G1 X142.373 Y98.934 E19.86346
G1 X143.343 Y98.749 E19.91272
G1 X144.238 Y98.586 E19.95811
G1 X145.141 Y98.428 E20.00384
G1 X145.464 Y98.374 E20.02018
G1 X145.464 Y101.988 E20.20048
G1 X144.870 Y102.109 E20.23073
G1 X144.347 Y102.205 E20.25726
G1 X143.519 Y102.363 E20.29931
G1 X142.794 Y102.489 E20.33602
G1 X141.217 Y102.777 E20.41600
G1 X140.660 Y102.882 E20.44428
G1 X140.056 Y102.911 E20.47445
G1 X138.787 Y102.982 E20.53786
G1 X137.417 Y103.069 E20.60634
G1 X135.571 Y103.199 E20.69867
G1 X133.258 Y103.378 E20.81441
G1 X131.621 Y103.521 E20.89639
G1 X128.511 Y103.814 E21.05224
G1 X127.465 Y103.924 E21.10471
G1 X126.133 Y104.072 E21.17157
G1 X123.756 Y104.379 E21.29115
G1 X122.816 Y104.516 E21.33854
G1 X121.403 Y104.735 E21.40988
G1 X120.245 Y104.923 E21.46841
G1 X119.488 Y105.055 E21.50674
G1 X118.723 Y105.179 E21.54541
G1 X117.060 Y105.458 E21.62953
G1 X115.917 Y105.641 E21.68728
G1 X114.856 Y105.796 E21.74078
G1 X113.603 Y105.969 E21.80388
G1 X112.776 Y106.068 E21.84544
G1 X111.633 Y106.197 E21.90283
G1 X111.130 Y106.244 E21.92803
G1 X109.563 Y106.379 E22.00650
G1 X107.219 Y106.520 E22.12365
G1 X104.986 Y106.601 E22.23513
G1 X104.286 Y106.619 E22.27006
G1 X102.985 Y106.642 E22.33498
G1 X102.256 Y106.640 E22.37135
G1 X101.335 Y106.655 E22.41731
G1 X99.981 Y106.650 E22.48486
G1 X99.908 Y106.653 E22.48850
G1 X99.723 Y106.652 E22.49773
G1 X99.126 Y106.692 E22.52758
G1 X98.354 Y106.756 E22.56623
G1 X97.781 Y106.800 E22.59490
G1 X97.163 Y106.859 E22.62587
G1 X96.348 Y106.945 E22.66676
G1 X95.801 Y107.006 E22.69422
G1 X95.260 Y107.074 E22.72142
G1 X94.730 Y107.147 E22.74811
G1 X94.189 Y107.225 E22.77538
G1 X93.438 Y107.343 E22.81331
G1 X92.716 Y107.463 E22.84983
G1 X91.947 Y107.601 E22.88880
G1 X91.276 Y107.730 E22.92289
G1 X90.484 Y107.891 E22.96322
G1 X89.834 Y108.030 E22.99638
G1 X89.041 Y108.206 E23.03690
G1 X88.385 Y108.357 E23.07049
G1 X86.195 Y108.900 E23.18305
G1 X85.689 Y109.029 E23.20911
G1 X83.702 Y109.561 E23.31173
G1 X83.031 Y109.749 E23.34650
G1 X81.123 Y110.299 E23.44556
G1 X80.297 Y110.555 E23.48870
G1 X78.135 Y111.246 E23.60194
G1 X75.822 Y112.065 E23.72436
G1 X75.347 Y112.239 E23.74960
G1 X74.535 Y112.559 E23.79314
G1 X74.535 Y108.875 E23.97694
G1 X75.013 Y108.709 E24.00218
G1 X75.652 Y108.490 E24.03588
G0 F9000 X75.888 Y108.980
;TYPE:SKIN
G1 F1800 X77.724 Y110.817 E24.16546
G0 F9000 X77.307 Y110.966
G1 F1800 X75.466 Y109.124 E24.29538
G0 F9000 X75.074 Y109.298
G1 F1800 X76.890 Y111.114 E24.42351
G0 F9000 X76.473 Y111.263
G1 F1800 X75.074 Y109.864 E24.52222
G0 F9000 X75.074 Y110.430
G1 F1800 X76.056 Y111.411 E24.59147
